X:1
L:1/8
M:3/4
K:C
 G2 | c2 (cd) (ed) | c2 G2 A2 | _B3 d (cB) | A4 G2 | c3 d e d | c2 G2 A2 | c3 d (ef) | g4 G2 | 
 c3 e (ed) | (c2 G2) A2 | (_B3 d) (cB) | A4 c2 | G3 F (EF) | G4 f2 | (efgf) (ed) | c4 ||
